X: 2
T: Bonaparte Crossing the Rhine $1(R-130)
I: Bonaparte Crossing the Rhine	R-130	D	march	Set 48
M: C
R: march
K: D
FG| "D"A>BAF A2de| f>efa d2dc| "G"B>cdB "D"AFED| "A"E2EF E2FG|
    "D"A>BAF A2de| f>efa d2dc| "G"B>cdB "D"AF"A"EF| "D"D2D>E D2de|
    "D"f>efg a2aA| "G"B>ABc "D"d3A| "G"B>cdB "D"AFDF| "A"E2E>F E2FG|
    "D"A>BAF A2de| f>efa d2dc| "G"B>cdB "D"AF"A"EF| "D"D2D>E D2 |]

%%vskip 6pt

